X: 1
T: Nina's
M: 6/8
L: 1/8
R: jig
K: Amaj
F|FAB c2B|BAc BAF|FAB c2B|Bce f2F|
FAB c2B|BAc BAB|BAc BAF|AFE F2:|
f|f2f ecB|BAc BAF|f2e ecB|Bce f2f|
fea fea|fec BAB|BAc BAc|BAE F2:|
